swiss/communes/0359.svg

<?xml version="1.0" encoding="UTF-8"?>
<svg width="445pt" version="1.1" xmlns="http://www.w3.org/2000/svg" height="539pt" viewBox="0 0 445 539" xmlns:xlink="http://www.w3.org/1999/xlink">
 <defs>
  <clipPath id="Clip0">
   <path d="M0 0 L0 538.964 L444.083 538.964 L444.083 0 L0 0 Z" transform="translate(0, 0.0361328)"/>
  </clipPath>
 </defs>
 <g id="Hintergrund">
  <g id="Gruppe1" clip-path="url(#Clip0)">
   <path style="fill:#e52d22; fill-rule:nonzero;stroke:none;" d="M217.081 529.043 C159.095 529.043 104.58 506.462 63.5791 465.459 C22.5791 424.458 0 369.943 0 311.957 L0 0 L434.161 0 L434.161 311.957 C434.161 369.943 411.581 424.457 370.58 465.459 C329.579 506.462 275.065 529.043 217.081 529.043 Z" transform="translate(4.96094, 4.99609)"/>
   <path style="fill:#ffffff; fill-rule:nonzero;stroke:none;" d="M355.571 225.319 C354.252 224.27 350.512 223.874 350.512 223.874 L351.853 222.84 C371.989 204.919 390.685 167.898 375.075 159.542 C368.486 156.015 359.775 161.162 344.231 170.871 C367.126 137.817 371.332 91.0978 354.578 88.5028 C342.695 86.7928 320.852 121.167 309.898 128.833 C323.956 107.256 342.81 37.0127 318.15 31.501 C302.573 28.9659 286.592 70.3526 268.294 91.0038 C272.452 81.8488 289.812 14.4795 259.267 3.8809 C233.439 0 242.103 90.4208 98.788 188.017 C0 255.29 149.274 336.684 90.99 371.866 L53.2763 393.67 C69.4209 414.661 90.18 431.919 114.037 443.925 C129.549 451.486 141.181 451.472 144.466 446.799 C188.987 476.52 206.692 454.448 204.365 450.892 C245.089 458.47 274.779 439.082 243.201 422.659 C276.935 426.627 312.35 401.346 278.439 389.567 C278.439 389.567 268.777 385.948 267.017 385.379 C302.215 386.881 331.054 352.948 299.112 347.235 C298.599 347.143 274.943 342.922 274.943 342.922 C316.412 336.659 341.492 299.529 305 299.654 C303.982 299.658 276.06 299.598 276.06 299.598 C319.815 294.592 380.871 245.444 355.571 225.319 Z" transform="translate(21.626, 28.9902)"/>
   <path style="fill:#161413; fill-rule:nonzero;stroke:none;" d="M308.008 242.314 C304.189 260.667 271.862 290.896 223.399 297.548 C223.387 297.55 223.376 297.554 223.365 297.556 C210.726 297.537 197.773 297.518 190.911 297.509 C190.64 293.693 189.359 290.174 187.103 287.272 C182.618 281.503 174.735 278.716 164.864 279.422 L129.68 282.192 C126.949 282.407 124.909 284.796 125.124 287.527 C125.339 290.258 127.716 292.304 130.459 292.083 L165.608 289.315 C172.035 288.851 176.884 290.293 179.271 293.362 C181.271 295.933 181.608 299.65 180.221 303.827 C179.358 306.428 180.766 309.235 183.366 310.098 C183.885 310.27 184.411 310.352 184.93 310.352 C186.843 310.352 188.623 309.228 189.436 307.429 C203.325 307.448 254.809 307.52 256.894 307.54 C256.948 307.539 257.002 307.539 257.061 307.539 C260.035 307.539 268.838 307.92 269.181 312.365 C269.751 319.753 253.611 336.471 226.594 340.533 C226.401 340.562 226.223 340.625 226.038 340.675 L186.197 333.572 C186.368 331.042 186.032 328.576 185.145 326.27 C183.021 320.746 177.058 313.853 160.671 312.389 L135.131 310.344 C132.402 310.109 130.009 312.161 129.79 314.891 C129.572 317.623 131.608 320.013 134.339 320.232 L159.833 322.275 C168.485 323.048 174.335 325.802 175.884 329.831 C176.542 331.542 176.472 333.559 175.747 335.701 C175.723 335.761 175.709 335.825 175.688 335.886 C174.906 338.091 173.431 340.423 171.332 342.685 C169.47 344.695 169.588 347.834 171.597 349.696 C172.552 350.582 173.762 351.019 174.969 351.019 C176.301 351.019 177.63 350.485 178.608 349.431 C180.486 347.405 182.02 345.281 183.218 343.119 L250.076 355.038 C254.714 355.897 260.153 357.813 259.723 362.061 C258.94 369.809 242.251 383.748 220.354 383.748 C220.166 383.748 219.978 383.745 219.789 383.743 L167.225 366.161 C167.289 364.89 167.248 363.614 167.069 362.343 C166.424 357.78 163.039 346.693 145.666 342.317 L131.613 338.478 C128.971 337.753 126.243 339.313 125.521 341.956 C124.799 344.599 126.356 347.327 128.999 348.049 L143.147 351.913 C151.337 353.976 156.476 358.283 157.245 363.731 C157.969 368.853 154.672 374.357 148.846 377.751 C146.479 379.13 145.678 382.167 147.056 384.534 C147.978 386.116 149.64 386.999 151.348 386.999 C152.196 386.999 153.055 386.781 153.84 386.323 C158.513 383.6 162.148 379.879 164.45 375.694 L228.735 397.196 C228.773 397.209 228.811 397.221 228.85 397.233 C232.196 398.263 239.876 401.102 238.927 405.239 C237.325 412.227 217.521 423.628 195.673 420.318 L137.899 390.668 C138.162 389.204 138.253 387.701 138.157 386.179 C137.567 376.85 130.343 368.896 118.832 364.903 C116.241 364.006 113.417 365.376 112.519 367.964 C111.621 370.553 112.992 373.379 115.58 374.276 C123.188 376.916 127.926 381.599 128.255 386.804 C128.514 390.888 125.95 394.673 121.398 396.929 C118.944 398.145 117.94 401.121 119.157 403.576 C120.023 405.323 121.779 406.335 123.605 406.335 C124.345 406.335 125.097 406.169 125.805 405.817 C128.987 404.24 131.64 402.121 133.671 399.648 L192.997 430.096 C199.977 434.057 203.679 438.276 202.661 441.118 C200.494 447.168 182.933 452.993 158.952 449.236 C157.57 445.895 154.665 442.099 149.165 438.068 L102.386 401.123 C100.237 399.424 97.1172 399.79 95.4182 401.94 C93.7212 404.09 94.0872 407.209 96.2372 408.907 L143.087 445.91 C143.137 445.949 143.186 445.987 143.237 446.024 C147.303 448.992 151.427 453.321 149.672 455.755 C146.159 460.625 125.398 463.593 102.163 447.884 C102.579 444.187 101.251 438.805 94.3952 431.948 C89.4922 427.045 77.9942 415.09 71.5782 408.4 C69.6812 406.424 66.5422 406.359 64.5642 408.254 C62.5872 410.15 62.5212 413.291 64.4182 415.267 C70.8612 421.985 82.4122 433.996 87.3792 438.964 C92.3932 443.977 92.4582 446.645 92.2942 446.875 C91.4412 448.072 83.5502 449.93 68.1362 442.42 C46.8912 431.727 27.8018 416.444 12.625 398.026 C21.6631 392.843 40.1372 382.228 45.4232 379.038 C74.6372 361.403 58.7602 333.258 43.4052 306.038 C33.1402 287.841 22.5254 269.023 21.0332 250.063 C19.378 229.021 29.9815 211.023 53.4492 195.042 C147.939 130.695 177.442 68.7959 193.291 35.542 C201.222 18.9043 205.264 10.9346 210.399 11.7119 C212.783 12.0694 215.293 14.2412 217.47 17.8252 C225.041 30.2959 227.643 57.5742 216.387 90.4056 C216.349 90.5176 216.337 90.6316 216.308 90.7446 C198.844 113.487 173.172 140.819 132.562 168.295 C130.293 169.83 129.698 172.914 131.233 175.183 C132.192 176.6 133.755 177.364 135.346 177.364 C136.303 177.364 137.269 177.088 138.121 176.512 C202.899 132.684 230.662 89.2546 247.251 63.3067 C257.621 47.084 263.321 38.6631 269.453 39.3535 C270.851 39.5147 272.131 40.7637 273.258 43.0674 C279.682 56.2061 276.334 97.4566 256.719 129.903 C236.593 148.842 207.04 171.349 160.357 191.925 C157.708 188.361 154.093 185.787 149.864 184.535 C145.052 183.11 137.173 182.715 127.037 188.867 L99.6392 204.782 C97.2702 206.159 96.4652 209.194 97.8412 211.563 C98.7622 213.148 100.426 214.033 102.136 214.033 C102.981 214.033 103.838 213.816 104.622 213.361 L132.103 197.397 C137.735 193.979 142.903 192.822 147.049 194.049 C150.679 195.123 152.621 197.794 153.613 199.846 C153.642 199.906 153.684 199.954 153.715 200.013 C153.737 200.067 153.743 200.123 153.767 200.177 C154.575 202.056 156.405 203.182 158.327 203.182 C158.981 203.182 159.645 203.052 160.283 202.778 C234.623 170.859 267.902 133.972 287.785 111.932 C295.588 103.284 302.319 95.8136 305.687 96.3296 C306.306 96.4256 308.188 96.7176 309.786 100.46 C315.361 113.507 309.152 145.868 292.57 170.153 C292.225 170.368 291.882 170.582 291.532 170.802 C270.213 184.134 234.792 206.273 174.863 225.845 C172.837 221.644 169.626 218.328 165.532 216.341 C161.237 214.257 153.971 212.644 143.746 216.799 L113.803 228.871 C111.262 229.895 110.033 232.785 111.057 235.326 C111.837 237.26 113.696 238.433 115.66 238.433 C116.277 238.433 116.905 238.317 117.513 238.072 L147.469 225.995 C152.894 223.792 157.642 223.54 161.199 225.266 C164.589 226.912 166.076 229.945 166.728 232.201 C167.143 233.638 168.158 234.724 169.414 235.307 C170.328 236.177 171.55 236.682 172.832 236.682 C173.332 236.682 173.841 236.606 174.344 236.445 C237.62 216.219 274.661 193.054 296.792 179.213 C297.373 178.85 297.934 178.5 298.498 178.147 C298.625 178.075 298.748 177.999 298.868 177.915 C311.847 169.811 320.494 164.64 324.603 166.841 C325.725 167.442 327.266 168.642 327.677 172.119 C329.088 184.026 315.926 208.185 300.562 221.934 C293.954 222.504 285.967 226.337 275.172 231.517 C256.663 240.402 229.047 253.653 185.368 262.31 C184.356 257.828 182.006 253.986 178.494 251.206 C174.501 248.047 167.243 244.873 155.357 247.707 L124.237 254.871 C121.567 255.485 119.901 258.148 120.516 260.818 C121.13 263.487 123.792 265.152 126.463 264.539 L157.619 257.366 C163.901 255.873 169.126 256.444 172.336 258.985 C174.717 260.87 176.024 263.901 176.015 267.52 C176.015 267.63 176.039 267.731 176.046 267.839 C176.016 268.253 176.018 268.674 176.097 269.101 C176.593 271.797 179.183 273.577 181.873 273.083 C229.94 264.236 259.743 249.929 279.466 240.462 C291.965 234.462 300.996 230.131 304.861 232.481 C306 233.176 309.471 235.288 308.008 242.314 Z M311.581 225.086 C326.237 209.959 339.353 186.339 337.53 170.952 C336.831 165.053 333.924 160.707 329.285 158.094 C322.452 154.245 315.426 154.957 307.676 161.707 C321.193 141.254 324.684 109.209 318.91 96.5616 C315.623 89.3616 310.829 87.0866 307.206 86.5256 C298.542 85.1836 291.726 92.7526 280.418 105.287 C279.521 106.282 275.091 111.967 275.091 111.967 C288.423 86.1506 288.726 52.1162 282.171 38.71 C278.796 31.8076 274.007 29.8897 270.584 29.4971 C258.012 28.0606 250.406 39.9522 238.892 57.9629 C236.847 61.1621 232.509 67.9805 230.065 71.6905 C233.282 61.6856 234.041 52.9551 233.887 45.7373 C233.602 32.376 230.783 20.6348 225.951 12.6768 C222.165 6.4414 217.297 2.7159 211.873 1.9004 C199.236 0 193.311 12.4434 184.335 31.2735 C168.889 63.6807 140.138 124.005 47.8652 186.842 C21.1953 205.003 9.1836 225.937 11.1436 250.842 C12.8077 271.988 24.4717 292.667 34.7642 310.912 C51.6882 340.914 60.2892 358.475 40.2962 370.544 C33.4612 374.67 2.9883 392.113 2.6817 392.289 C1.4385 393.001 0.5635 394.216 0.2823 395.62 C0 397.025 0.3409 398.483 1.2139 399.619 C17.8174 421.207 39.4162 439.072 63.7332 451.309 C72.7022 455.681 80.9522 457.885 87.5212 457.885 C91.0262 457.884 94.0402 457.243 96.4412 455.983 C110.305 465.378 124.906 469.651 136.642 469.65 C146.254 469.649 153.944 466.792 157.718 461.559 C158.09 461.043 158.58 460.263 159.014 459.262 C164.113 459.986 169.077 460.355 173.79 460.355 C193.204 460.354 208.432 454.431 212.001 444.463 C213.111 441.367 215.112 433.557 206.469 428.89 C226.686 430.804 245.904 419.199 248.597 407.457 C249.38 404.044 249.849 393.123 234.983 390.182 C255.899 387.071 268.515 373.739 269.594 363.059 C270.928 349.856 256.376 346.115 251.851 345.276 L244.662 344.203 C266.616 338.845 279.922 322.601 279.073 311.601 C278.767 307.64 277.902 296.696 248.278 299.02 C277.068 295.445 312.187 269.498 317.722 244.336 C319.499 236.255 317.168 229.334 311.581 225.086 Z" transform="translate(69.7568, 26.0654)"/>
   <path style="fill:#161413; fill-rule:nonzero;stroke:none;" d="M444.083 0 L0 0 L0 316.917 C0 439.548 99.4063 538.964 222.042 538.964 C344.672 538.964 444.083 439.548 444.083 316.917 L444.083 0 Z M434.162 9.9209 L434.162 316.917 C434.162 345.558 428.554 373.337 417.496 399.483 C406.813 424.741 391.517 447.427 372.033 466.913 C352.549 486.397 329.863 501.694 304.605 512.377 C278.46 523.436 250.682 529.043 222.042 529.043 C193.4 529.043 165.621 523.436 139.476 512.377 C114.218 501.694 91.5313 486.397 72.0479 466.913 C52.5645 447.428 37.2686 424.741 26.5859 399.483 C15.5283 373.337 9.92188 345.558 9.92188 316.917 L9.92188 9.9209 L434.162 9.9209 Z" transform="translate(0, 0.0361328)"/>
  </g>
 </g>
</svg>

<svg width="445pt" xmlns="http://www.w3.org/2000/svg" height="539pt" viewBox="0 0 445 539"><defs><clipPath id="a"><path d="M0 0v538.964h444.083V0H0z" transform="translate(0 .036)"/></clipPath></defs><g clip-path="url(#a)"><path style="fill:#e52d22;fill-rule:nonzero;stroke:none" d="M217.081 529.043c-57.986 0-112.501-22.581-153.502-63.584C22.58 424.458 0 369.943 0 311.957V0h434.161v311.957c0 57.986-22.58 112.5-63.581 153.502-41.001 41.003-95.515 63.584-153.499 63.584z" transform="translate(4.96 4.996)"/><path style="fill:#fff;fill-rule:nonzero;stroke:none" d="M355.571 225.319c-1.319-1.049-5.059-1.445-5.059-1.445l1.341-1.034c20.136-17.921 38.832-54.942 23.222-63.298-6.589-3.527-15.3 1.62-30.844 11.329 22.895-33.054 27.101-79.773 10.347-82.368-11.883-1.71-33.726 32.664-44.68 40.33 14.058-21.577 32.912-91.82 8.252-97.332-15.577-2.535-31.558 38.852-49.856 59.503 4.158-9.155 21.518-76.525-9.027-87.123C233.439 0 242.103 90.42 98.788 188.017 0 255.29 149.274 336.684 90.99 371.866L53.276 393.67c16.145 20.991 36.904 38.249 60.761 50.255 15.512 7.561 27.144 7.547 30.429 2.874 44.521 29.721 62.226 7.649 59.899 4.093 40.724 7.578 70.414-11.81 38.836-28.233 33.734 3.968 69.149-21.313 35.238-33.092 0 0-9.662-3.619-11.422-4.188 35.198 1.502 64.037-32.431 32.095-38.144l-24.169-4.313c41.469-6.263 66.549-43.393 30.057-43.268-1.018.004-28.94-.056-28.94-.056 43.755-5.006 104.811-54.154 79.511-74.279z" transform="translate(21.626 28.99)"/><path style="fill:#161413;fill-rule:nonzero;stroke:none" d="M308.008 242.314c-3.819 18.353-36.146 48.582-84.609 55.234l-.034.008-32.454-.047c-.271-3.816-1.552-7.335-3.808-10.237-4.485-5.769-12.368-8.556-22.239-7.85l-35.184 2.77a4.961 4.961 0 0 0-4.556 5.335 4.95 4.95 0 0 0 5.335 4.556l35.149-2.768c6.427-.464 11.276.978 13.663 4.047 2 2.571 2.337 6.288.95 10.465a4.96 4.96 0 0 0 4.709 6.525 4.957 4.957 0 0 0 4.506-2.923c13.889.019 65.373.091 67.458.111l.167-.001c2.974 0 11.777.381 12.12 4.826.57 7.388-15.57 24.106-42.587 28.168-.193.029-.371.092-.556.142l-39.841-7.103c.171-2.53-.165-4.996-1.052-7.302-2.124-5.524-8.087-12.417-24.474-13.881l-25.54-2.045c-2.729-.235-5.122 1.817-5.341 4.547a4.961 4.961 0 0 0 4.549 5.341l25.494 2.043c8.652.773 14.502 3.527 16.051 7.556.658 1.711.588 3.728-.137 5.87-.024.06-.038.124-.059.185-.782 2.205-2.257 4.537-4.356 6.799a4.962 4.962 0 0 0 7.276 6.746c1.878-2.026 3.412-4.15 4.61-6.312l66.858 11.919c4.638.859 10.077 2.775 9.647 7.023-.783 7.748-17.472 21.687-39.369 21.687-.188 0-.376-.003-.565-.005l-52.564-17.582a20.092 20.092 0 0 0-.156-3.818c-.645-4.563-4.03-15.65-21.403-20.026l-14.053-3.839a4.958 4.958 0 0 0-6.092 3.478 4.96 4.96 0 0 0 3.478 6.093l14.148 3.864c8.19 2.063 13.329 6.37 14.098 11.818.724 5.122-2.573 10.626-8.399 14.02a4.962 4.962 0 0 0 2.502 9.248c.848 0 1.707-.218 2.492-.676 4.673-2.723 8.308-6.444 10.61-10.629l64.285 21.502.115.037c3.346 1.03 11.026 3.869 10.077 8.006-1.602 6.988-21.406 18.389-43.254 15.079l-57.774-29.65c.263-1.464.354-2.967.258-4.489-.59-9.329-7.814-17.283-19.325-21.276a4.961 4.961 0 0 0-3.252 9.373c7.608 2.64 12.346 7.323 12.675 12.528.259 4.084-2.305 7.869-6.857 10.125a4.96 4.96 0 0 0 2.207 9.406 4.93 4.93 0 0 0 2.2-.518c3.182-1.577 5.835-3.696 7.866-6.169l59.326 30.448c6.98 3.961 10.682 8.18 9.664 11.022-2.167 6.05-19.728 11.875-43.709 8.118-1.382-3.341-4.287-7.137-9.787-11.168l-46.779-36.945a4.96 4.96 0 1 0-6.149 7.784l46.85 37.003c.05.039.099.077.15.114 4.066 2.968 8.19 7.297 6.435 9.731-3.513 4.87-24.274 7.838-47.509-7.871.416-3.697-.912-9.079-7.768-15.936-4.903-4.903-16.4-16.858-22.817-23.548a4.96 4.96 0 1 0-7.16 6.867c6.443 6.718 17.994 18.729 22.961 23.697 5.014 5.013 5.08 7.681 4.915 7.911-.853 1.197-8.744 3.055-24.158-4.455-21.245-10.693-40.334-25.976-55.511-44.394 9.038-5.183 27.512-15.798 32.798-18.988 29.214-17.635 13.337-45.78-2.018-73-10.265-18.197-20.88-37.015-22.372-55.975-1.655-21.042 8.948-39.04 32.416-55.021 94.49-64.347 123.993-126.246 139.842-159.5 7.931-16.638 11.973-24.607 17.108-23.83 2.384.357 4.894 2.53 7.071 6.113 7.571 12.47 10.173 39.75-1.083 72.58-.038.113-.05.227-.079.34-17.464 22.742-43.136 50.074-83.746 77.55a4.96 4.96 0 0 0 5.559 8.217c64.778-43.828 92.541-87.257 109.13-113.205 10.37-16.223 16.07-24.644 22.202-23.954 1.398.162 2.678 1.41 3.805 3.714 6.424 13.14 3.076 54.39-16.539 86.836-20.126 18.939-49.679 41.446-96.362 62.022-2.649-3.564-6.264-6.138-10.493-7.39-4.812-1.425-12.691-1.82-22.827 4.332l-27.398 15.915a4.96 4.96 0 0 0 4.983 8.579l27.481-15.964c5.632-3.418 10.8-4.575 14.946-3.348 3.63 1.074 5.572 3.745 6.564 5.797.029.06.071.108.102.167.022.054.028.11.052.164a4.964 4.964 0 0 0 4.56 3.005c.654 0 1.318-.13 1.956-.404 74.34-31.919 107.619-68.806 127.502-90.846 7.803-8.648 14.534-16.118 17.902-15.602.619.096 2.501.388 4.099 4.13 5.575 13.047-.634 45.408-17.216 69.693l-1.038.649c-21.319 13.332-56.74 35.471-116.669 55.043-2.026-4.201-5.237-7.517-9.331-9.504-4.295-2.084-11.561-3.697-21.786.458l-29.943 12.072a4.96 4.96 0 1 0 3.71 9.201l29.956-12.077c5.425-2.203 10.173-2.455 13.73-.729 3.39 1.646 4.877 4.679 5.529 6.935.415 1.437 1.43 2.523 2.686 3.106a4.967 4.967 0 0 0 3.418 1.375c.5 0 1.009-.076 1.512-.237 63.276-20.226 100.317-43.391 122.448-57.232l1.706-1.066c.127-.072.25-.148.37-.232 12.979-8.104 21.626-13.275 25.735-11.074 1.122.601 2.663 1.801 3.074 5.278 1.411 11.907-11.751 36.066-27.115 49.815-6.608.57-14.595 4.403-25.39 9.583-18.509 8.885-46.125 22.136-89.804 30.793-1.012-4.482-3.362-8.324-6.874-11.104-3.993-3.159-11.251-6.333-23.137-3.499l-31.12 7.164a4.96 4.96 0 1 0 2.226 9.668l31.156-7.173c6.282-1.493 11.507-.922 14.717 1.619 2.381 1.885 3.688 4.916 3.679 8.535 0 .11.024.211.031.319-.03.414-.028.835.051 1.262a4.963 4.963 0 0 0 5.776 3.982c48.067-8.847 77.87-23.154 97.593-32.621 12.499-6 21.53-10.331 25.395-7.981 1.139.695 4.61 2.807 3.147 9.833zm3.573-17.228c14.656-15.127 27.772-38.747 25.949-54.134-.699-5.899-3.606-10.245-8.245-12.858-6.833-3.849-13.859-3.137-21.609 3.613 13.517-20.453 17.008-52.498 11.234-65.145-3.287-7.2-8.081-9.475-11.704-10.036-8.664-1.342-15.48 6.227-26.788 18.761-.897.995-5.327 6.68-5.327 6.68 13.332-25.816 13.635-59.85 7.08-73.257-3.375-6.902-8.164-8.82-11.587-9.213-12.572-1.436-20.178 10.455-31.692 28.466-2.045 3.2-6.383 10.018-8.827 13.727 3.217-10.004 3.976-18.735 3.822-25.953-.285-13.361-3.104-25.102-7.936-33.06-3.786-6.236-8.654-9.961-14.078-10.777-12.637-1.9-18.562 10.543-27.538 29.373-15.446 32.408-44.197 92.732-136.47 155.569-26.67 18.161-38.681 39.095-36.721 64 1.664 21.146 13.328 41.825 23.62 60.07 16.924 30.002 25.525 47.563 5.532 59.632-6.835 4.126-37.308 21.569-37.614 21.745a4.963 4.963 0 0 0-1.468 7.33c16.603 21.588 38.202 39.453 62.52 51.69 8.968 4.372 17.218 6.576 23.787 6.576 3.505-.001 6.52-.642 8.92-1.902 13.864 9.395 28.465 13.668 40.201 13.667 9.612-.001 17.302-2.858 21.076-8.091.372-.516.862-1.296 1.296-2.297 5.099.724 10.063 1.093 14.776 1.093 19.414-.001 34.642-5.924 38.211-15.892 1.11-3.096 3.111-10.906-5.532-15.573 20.217 1.914 39.435-9.691 42.128-21.433.783-3.413 1.252-14.334-13.614-17.275 20.916-3.111 33.532-16.443 34.611-27.123 1.334-13.203-13.218-16.944-17.743-17.783l-7.189-1.073c21.954-5.358 35.26-21.602 34.411-32.602-.306-3.961-1.171-14.905-30.795-12.581 28.79-3.575 63.909-29.522 69.444-54.684 1.777-8.081-.554-15.002-6.141-19.25z" transform="translate(69.757 26.065)"/><path style="fill:#161413;fill-rule:nonzero;stroke:none" d="M444.083 0H0v316.917c0 122.631 99.406 222.047 222.042 222.047 122.63 0 222.041-99.416 222.041-222.047V0zm-9.921 9.92v306.997c0 28.641-5.608 56.42-16.666 82.566-10.683 25.258-25.979 47.944-45.463 67.43-19.484 19.484-42.17 34.781-67.428 45.464-26.145 11.059-53.923 16.666-82.563 16.666-28.642 0-56.421-5.607-82.566-16.666-25.258-10.683-47.945-25.98-67.428-45.464-19.483-19.485-34.78-42.172-45.462-67.43-11.058-26.146-16.664-53.925-16.664-82.566V9.921h424.24z" transform="translate(0 .036)"/></g></svg>
